docs/icons/mdn.svg

<svg width="128" height="128" viewBox="0 0 128 128" fill="none" xmlns="http://www.w3.org/2000/svg">

<path d="M106.899 64.4413C106.469 65.2651 106.004 66.0441 105.592 66.8678C105.322 67.4644 104.87 67.9596 104.3 68.2816C103.73 68.6036 103.072 68.7357 102.422 68.6586C101.921 68.6415 101.43 68.7998 101.034 69.1063C99.8071 69.9121 98.5624 70.709 97.2908 71.4612C96.4267 71.9356 95.4668 72.2093 94.4824 72.2621C93.4981 72.3148 92.5144 72.1451 91.6046 71.7656C88.568 70.5913 85.3416 69.9843 82.0858 69.9748C80.4718 69.9218 78.8675 70.2425 77.398 70.912C75.9285 71.5814 74.6337 72.5814 73.6146 73.8339C72.775 75.0026 72.1309 76.2999 71.7073 77.6751C70.5969 80.424 69.6477 96.8185 69.6477 101C69.6477 101 53.8696 97.9378 39.0675 82.7878L42.9269 72.652H30.8381L39.5779 63.3848H24.534L33.2827 54.1264H19L34.9035 37.2663C39.7797 32.4396 45.9139 29.0796 52.6069 27.5692C58.9648 26.4769 60.6035 27.0947 64.5256 28.2587L66.7016 28.9123L67.4628 29.1362L70.2387 29.9868C72.0564 30.4787 73.9684 30.5064 75.7996 30.0674C78.2869 29.423 80.9259 29.7429 83.1872 30.9628C84.1936 31.5375 85.0504 32.3413 85.6883 33.3088C86.3262 34.2764 86.7271 35.3807 86.8586 36.5321C86.975 37.5473 87.3282 38.5209 87.8897 39.3747C88.4511 40.2285 89.2052 40.9386 90.0913 41.4477C92.7628 42.9109 95.5549 44.1421 98.437 45.1278C100.47 45.8978 102.502 46.7753 104.517 47.5632C105.518 47.9427 106.401 48.5788 107.078 49.4077C107.654 50.0996 107.998 50.9545 108.063 51.8522C108.189 53.6429 108.395 55.4337 108.484 57.2245C108.625 59.7211 108.076 62.2083 106.899 64.4145V64.4413Z" fill="white"/>
</svg>

<svg xmlns="http://www.w3.org/2000/svg" width="128" height="128" fill="none" xmlns:v="https://vecta.io/nano"><path d="M106.899 64.441l-1.307 2.427c-.27.597-.722 1.092-1.292 1.414a3.08 3.08 0 0 1-1.878.377 2.15 2.15 0 0 0-1.388.448l-3.743 2.355c-.864.474-1.824.748-2.808.801s-1.968-.117-2.878-.496c-3.037-1.174-6.263-1.781-9.519-1.791-1.614-.053-3.218.268-4.688.937s-2.764 1.669-3.783 2.922a13.29 13.29 0 0 0-1.907 3.841c-1.11 2.749-2.06 19.143-2.06 23.325 0 0-15.778-3.062-30.58-18.212l3.859-10.136H30.838l8.74-9.267H24.534l8.749-9.258H19l15.904-16.86c4.876-4.827 11.01-8.187 17.703-9.697 6.358-1.092 7.997-.474 11.919.69l2.176.654.761.224 2.776.851a11.25 11.25 0 0 0 5.561.081 10.18 10.18 0 0 1 7.388.895 7.38 7.38 0 0 1 2.501 2.346c.638.968 1.039 2.072 1.17 3.223.116 1.015.47 1.989 1.031 2.843s1.316 1.564 2.202 2.073c2.671 1.463 5.464 2.694 8.346 3.68 2.033.77 4.065 1.648 6.08 2.435 1.001.38 1.884 1.016 2.561 1.844.576.692.92 1.547.985 2.445.126 1.791.332 3.581.421 5.372a13.64 13.64 0 0 1-1.585 7.19v.027z" fill="#fff"/></svg>
